Costumes/l-block.svg

<?xml version="1.0" encoding="UTF-8" standalone="no"?>
<svg
   version="1.1"
   width="51.065521"
   height="79.615486"
   id="svg5"
   sodipodi:docname="l-block.svg"
   xmlns:inkscape="http://www.inkscape.org/namespaces/inkscape"
   xmlns:sodipodi="http://sodipodi.sourceforge.net/DTD/sodipodi-0.dtd"
   xmlns="http://www.w3.org/2000/svg"
   xmlns:svg="http://www.w3.org/2000/svg">
  <defs
     id="defs9" />
  <sodipodi:namedview
     id="namedview7"
     pagecolor="#ffffff"
     bordercolor="#000000"
     borderopacity="0.25"
     inkscape:showpageshadow="2"
     inkscape:pageopacity="0.0"
     inkscape:pagecheckerboard="0"
     inkscape:deskcolor="#d1d1d1" />
  <!-- Exported by Scratch - http://scratch.mit.edu/ -->
  <g
     id="ID0.9262165585532784"
     transform="translate(-0.84349117,-0.50128016)">
    <path
       id="ID0.7828148500993848"
       d="m 290,356 c 6.046,-1.517 9.333,-1.026 11,-1 0.772,0.8 2.504,0.83 4,1 -0.643,22.321 1.524,32.901 3,52 5.663,-0.802 13.567,0.245 22,-2 2.656,2.344 -0.739,10.739 2,13 0,2 0,4 0,6 -2.503,1.9 -3.927,-0.83 -7,1 -0.726,3.059 1.726,2.941 1,6 -14.428,2.021 -24.704,-1.811 -36,4 -1,0 -2.073,0.353 -3,0 -2.97,-5.732 -3.459,-12.706 -6,-18 -0.701,-22.624 -0.087,-37.326 -1,-51 -0.056,-3.146 -0.23,-2.152 0,-3 2.285,-0.23 4.795,0.364 7,0 0.334,-3.416 0.861,-6.298 3,-8 z m 0,3 c -0.119,20.28 1.907,51.04 4,67 10.024,-2.643 22.658,-2.675 34,-4 0.383,-5.521 0.383,-5.479 0,-11 -4.955,-1 -18.636,3.485 -23,-2 -1.745,-21.559 -3.515,-28.138 -3,-50 -3.807,-2.027 -6.626,0.817 -12,0 z"
       transform="matrix(0.97984642,0,0,0.97984642,-273.4,-347.25)" />
    <path
       id="ID0.5740158627741039"
       fill="#ff9400"
       d="m 302,359 c -0.515,21.862 1.255,28.441 3,50 4.364,5.485 18.045,1 23,2 0.383,5.521 0.383,5.479 0,11 -11.342,1.325 -23.976,1.357 -34,4 -2.093,-15.96 -4.119,-46.72 -4,-67 5.374,0.817 8.193,-2.027 12,0 z"
       transform="matrix(0.97984642,0,0,0.97984642,-273.4,-347.25)" />
  </g>
</svg>

<svg version="1.1" width="52" height="81" xmlns="http://www.w3.org/2000/svg" xmlns:xlink="http://www.w3.org/1999/xlink">
  <!-- Exported by Scratch - http://scratch.mit.edu/ -->
  <g id="ID0.9262165585532784">
    <path id="ID0.7828148500993848" d="M 290 356 C 296.046 354.483 299.333 354.974 301 355 C 301.772 355.800 303.504 355.830 305 356 C 304.357 378.321 306.524 388.901 308 408 C 313.663 407.198 321.567 408.245 330 406 C 332.656 408.344 329.261 416.739 332 419 C 332 421 332 423 332 425 C 329.497 426.900 328.073 424.170 325 426 C 324.274 429.059 326.726 428.941 326 432 C 311.572 434.021 301.296 430.189 290 436 C 289 436 287.927 436.353 287 436 C 284.030 430.268 283.541 423.294 281 418 C 280.299 395.376 280.913 380.674 280 367 C 279.944 363.854 279.770 364.848 280 364 C 282.285 363.770 284.795 364.364 287 364 C 287.334 360.584 287.861 357.702 290 356 Z M 290 359 C 289.881 379.280 291.907 410.040 294 426 C 304.024 423.357 316.658 423.325 328 422 C 328.383 416.479 328.383 416.521 328 411 C 323.045 410 309.364 414.485 305 409 C 303.255 387.441 301.485 380.862 302 359 C 298.193 356.973 295.374 359.817 290 359 Z " transform="matrix(0.9798464179039001, 0, 0, 0.9798464179039001, -273.4, -347.25)"/>
    <path id="ID0.5740158627741039" fill="#FF9400" d="M 302 359 C 301.485 380.862 303.255 387.441 305 409 C 309.364 414.485 323.045 410 328 411 C 328.383 416.521 328.383 416.479 328 422 C 316.658 423.325 304.024 423.357 294 426 C 291.907 410.040 289.881 379.280 290 359 C 295.374 359.817 298.193 356.973 302 359 Z " transform="matrix(0.9798464179039001, 0, 0, 0.9798464179039001, -273.4, -347.25)"/>
  </g>
</svg>
